X:175
M:4/4
L:1/8
K:G
| B2d2 c2e2 | B2dB A2G2 | B2d2 e2ge | dcBA G4 | 
|: g2e2 dBGA | B4 A2G2 | g2e2 dBGA | B2A2 G4 :| 

